!!!OTL: Graf und Nonne (Die Nonne)
!!!OTL-incipit:Stund ich auf hohen Bergen
!!!ARE: Europa, Mitteleuropa, Deutschland
!!!YOR: 8, S. 285
!!    1791 gedruckt in Leipzig
!!!SCT: Q0155w
!!!TXL: @@DE
!!!YEM: Copyright 1995, estate of Helmut Schaffrath.
**kern	**text
*ICvox	*
*M2/4	*
*k[b-e-]	*
*g:	*
{(16b-L	Stund
16ccJ)	.
=1	=1
8.ddL	ich
16ccJ	auf
8b-L	ho-
8aJ	-hen
=2	=2
(8gL	Ber-
16b-	.
16ccJ)	.
8dd}	-gen
{8dd	und
=3	=3
8ee-L	sah
8ee-J	wohl
16ccL	ü-
16cc	-ber
8ccJ	den
=4	=4
4dd	Rhein
8r}	.
{8dd	ein
=5	=5
8.ddL	Schiſſ-
16ee-J	-lei
8ffL	sah
8ddJ	ich
=6	=6
(8ccL	fah-
16b-	.
16ccJ)	.
8dd}	-ren,
{8cc	ein
=7	=7
8.b-L	Schiff-
16ccJ	-lein
8ddL	sah
8b-J	ich
=8	=8
(8aL	fah-
16g	.
16aJ)	.
8b-}	-ren
{8dd	der
=9	=9
8ggL	Rit-
8b-J	-ter
(16ccL	wa-
16ddJ)	.
(16b-L	-ren
16aJ)	.
=10	=10
4g}	drei.
{4dd	der
=11	=11
8ggL	Rit-
8b-J	-ter
(16ccL	wa-
16ddJ)	.
(16b-L	-ren
16aJ)	.
=12	=12
4g	drei.
8r}	.
==	==
!!!AGN: Ballade, Standesunterschied, vergebliche Werbung, Liebe, Klage
!!!ONB: ESAC (Essen Associative Code) Database: BALLADE
!!!AMT: simple duple
!!!AIN: vox
!!!EED: Helmut Schaffrath
!!!EEV: 1.0
!!!source: Deutsche Volkslieder mit ihren Melodien. Herausgegeben vom Deutschen Volksliedarchiv. Achter Teil. Freiburg/Breisgau 1988.
!!!page: 285
!!!ENC: Anna Maria Matuszewska
!!!EEV: 2025/03/10
*-	*-
